dist/svg/file-ppt-o.svg

<!-- Generated by Trend Micro Style Portal -->
<svg version="1.1" xmlns="http://www.w3.org/2000/svg" width="16" height="16" viewBox="0 0 16 16">
  <title>file-ppt-o</title>
  <path fill="rgb(34,34,34)" d="M11 0h-9c-0.5 0-1 0.5-1 1v14c0 0.5 0.5 1 1 1h12c0.5 0 1-0.5 1-1v-11l-4-4zM11 1.4l2.6 2.6h-2.6v-2.6zM14 15h-12v-14h8v4h4v10zM9 6h-4v1h1v6h-1v1h3v-1h-1v-2h2c1.1 0 2-0.9 2-2v-1c0-1.1-0.9-2-2-2zM10 9c0 0.6-0.4 1-1 1h-2v-3h2c0.6 0 1 0.4 1 1v1z"></path>
</svg>

<svg width="16" height="16" viewBox="0 0 16 16" fill="rgb(34, 34, 34)" xmlns="http://www.w3.org/2000/svg"><title>file-PPT-o</title><path d="M11 0H2C1.5 0 1 0.5 1 1V15C1 15.5 1.5 16 2 16H14C14.5 16 15 15.5 15 15V4L11 0ZM11 1.4L13.6 4H11V1.4ZM14 15H2V1H10V5H14V15ZM9 6H5V7H6V13H5V14H8V13H7V11H9C10.1 11 11 10.1 11 9V8C11 6.9 10.1 6 9 6ZM10 9C10 9.6 9.6 10 9 10H7V7H9C9.6 7 10 7.4 10 8V9Z" fill="rgb(34, 34, 34)" fill-opacity="1.00"/></svg>
